X: 3
T: The Red Haired Boy
R: reel
M: 4/4
L: 1/8
K: Amix
A>G|E2A2 AB cd |ef ge d2cd|ed cB AB cA|BG EF G2 A>G|E2A2 AB cd|ef ge d2cd|ea ab ag ed|c2A2A2:|ef |g2 ga gf ef|gf ge d2cd|ed cB AB cA|BG EF G2 A>G|E2A2 AB cd|ef ge d2cd|ea ab ag ed|c2A2A2:|


Tune 566	Setting 13544

